X: 1
T: Fiery Clockface, The
M: 4/4
L: 1/8
R: highland fling
K: Dmaj
c|d>dD>E F>GA>B|=c>=cE>F G>A B>c|d>dD>E F>GA>B|(3Bcd e>c d2d:|
e|f>f (3def g>fe>d|c>BA>B c>de>g|f>f (3def g>fe>d|(3cBA B>c d2de|
f>f (3def g>fe>d|c>BA>B c>de>g|f>f (3def g>fg>b|a>a (3ABc d2d||
